X: 36
T: Missa De beata virgine / Kyrie
N: Derived from Rue1008a-Missa_De_beata_virgine-Kyrie.krn
C: Pierre de la Rue
%%abc-version 2.0
%%abcx-abcm2ps-target-version 5.9.1 (29 Sep 2008)
%%abc-creator hum2abc beta
%%abcx-conversion-date 2019/02/17 08:01:10
%%abc-edited-by Jesse Rodin
%%abc-edited-by Jesse Rodin/Chris Gage 09-11-2012
%%abcx-initial-encoding-date 2012/09/18/
%%humdrum-veritas 3184945606
%%humdrum-veritas-data 2323143625
%%linebreak <none>
%%barnumbers 0
L: 1/4
M: 3/1
Q: 1/2=120
%%staves [1 2 3 4]
V: 1 clef=treble
V: 2 clef=treble-8
V: 3 clef=treble-8
V: 4 clef=bass
K: C
[V:1] A8A4 | 
[V:2] e4e2A4A2 | 
[V:3] A4A2c4d2 | 
[V:4] A,4A,2F,4F,2 | 
[V:1] G4G2c4c2 | 
[V:2] B4B2A2e2c2 | 
[V:3] e8z4 | 
[V:4] E,4E,2A,4A,2 | 
[V:1] d3cBAGFG4 | 
[V:2] g3fd2e4e2 | 
[V:3] d4d2c2B4 | 
[V:4] G,4G,2E,4E,2 | 
[V:1] A8z4 | 
[V:2] c4c2f4f2 | 
[V:3] A8z4 | 
[V:4] F,4F,2D,4F,2 | 
[V:1] G4G2c4c2 | 
[V:2] e8f4 | 
[V:3] c8A4 | 
[V:4] C,8z4 | 
[V:1] B3cd2c4BA | 
[V:2] g4g2c4d2 | 
[V:3] G4G2A4A2 | 
[V:4] z4z4F,4 | 
[V:1] G3AB2G2A2B2 | 
[V:2] e12 | 
[V:3] B4B2c4B2 | 
[V:4] E,3F,G,2E,2A,2G,2- | 
[V:1] G4z2B2c2d2 | 
[V:2] z2e2f2e4d2 | 
[V:3] z2G2A2G2A2B2- | 
[V:4] G,E,E,2D,2E,2C,2B,,2 | 
[V:1] B2e4d2B3d | 
[V:2] e4A2B2d3B | 
[V:3] B2c4d3GG2 | 
[V:4] E,3D,C,2B,,4B,,2 | 
[V:1] c2B2z2e4d2 | 
[V:2] c2g3fedc2B2 | 
[V:3] A2B2c4c2d2- | 
[V:4] A,,2E,3D,C,2A,,2B,,2- | 
[V:1] B2d2c2d2B3c | 
[V:2] d3Be2d2GABG | 
[V:3] dGG2A2B4G2 | 
[V:4] B,,2B,,2C,2B,,2E,4 | 
[V:1] A2G3cBA2^F^G2 | 
[V:2] d2e3cf2e4 | 
[V:3] A2B2c2d2B4 | 
[V:4] F,2E,4D,2E,4 | 
[V:1] A12 ||  
[V:2] e12 ||  
[V:3] A12 ||  
[V:4] A,,12 ||  
[V:1]  [K:C] [K:clef=treble][M:2/1]z8 | 
[V:2]  [K:C] [K:clef=treble-8][M:2/1]z4B4- | 
[V:3]  [K:C] [K:clef=treble-8][M:2/1]z8 | 
[V:4]  [K:C] [K:clef=bass][M:2/1]E,8 | 
[V:1] z8 | 
[V:2] B4A4 | 
[V:3] z8 | 
[V:4] D,4F,4- | 
[V:1] z8 | 
[V:2] c6B2 | 
[V:3] z4e4- | 
[V:4] F,2E,2E,4 | 
[V:1] B8 | 
[V:2] B8 | 
[V:3] e4d4 | 
[V:4] z4G,4 | 
[V:1] A4c4- | 
[V:2] z2c4A2 | 
[V:3] f6e2 | 
[V:4] F,4A,4- | 
[V:1] c2B2B4 | 
[V:2] c3B/A/G2B2 | 
[V:3] e8 | 
[V:4] A,2G,2E,2G,2 | 
[V:1] z2B2A2c2 | 
[V:2] A2G2c4 | 
[V:3] z4e4- | 
[V:4] F,2E,2A,4 | 
[V:1] B2A4G2 | 
[V:2] z4G4 | 
[V:3] e4d4 | 
[V:4] G,2A,2B,4 | 
[V:1] A2c3BB2 | 
[V:2] c4A2B2 | 
[V:3] f4e4 | 
[V:4] z2A,4G,2 | 
[V:1] A2B2z2e2- | 
[V:2] c2B4A2- | 
[V:3] z4e4- | 
[V:4] A,2E,4C2- | 
[V:1] e2d4^c2 | 
[V:2] A2a3ge2 | 
[V:3] e8 | 
[V:4] CB,A,G,A,4 | 
[V:1] d8 | 
[V:2] f4d4 | 
[V:3] d4f4- | 
[V:4] D,8 | 
[V:1] z8 | 
[V:2] z2c4B2 | 
[V:3] f4e4- | 
[V:4] z2A,4G,2 | 
[V:1] z8 | 
[V:2] c2A4B2- | 
[V:3] e2d2d4- | 
[V:4] A,4F,2G,2- | 
[V:1] z8 | 
[V:2] BAGFG4 | 
[V:3] d4^c4 | 
[V:4] G,F,E,D,E,4 | 
[V:1] z4A4- | 
[V:2] A8 | 
[V:3] d8- | 
[V:4] D,8- | 
[V:1] A2GF_B2A2- | 
[V:2] f6ed | 
[V:3] d8 | 
[V:4] D,8- | 
[V:1] A2G2F4 | 
[V:2] f2e2d4 | 
[V:3] z8 | 
[V:4] D,8 | 
[V:1] E4z2e2- | 
[V:2] c4e4- | 
[V:3] c8- | 
[V:4] A,8- | 
[V:1] e2dcf2e2- | 
[V:2] e2fga4- | 
[V:3] c8- | 
[V:4] A,8- | 
[V:1] e2d2c4 | 
[V:2] a2gfe2f2 | 
[V:3] c8 | 
[V:4] A,8 | 
[V:1] B8 | 
[V:2] g8 | 
[V:3] d4e4 | 
[V:4] G,8 | 
[V:1] z2A4B2- | 
[V:2] z2c4B2- | 
[V:3] f6e2 | 
[V:4] F,6G,2- | 
[V:1] B2B2c2A2- | 
[V:2] B2B2A4 | 
[V:3] d4c4 | 
[V:4] G,4A,2F,2- | 
[V:1] A2GFE4 | 
[V:2] A2d4c2 | 
[V:3] d4e4 | 
[V:4] F,2F,2G,2A,2 | 
[V:1] z2A4B2- | 
[V:2] d4c2B2- | 
[V:3] f6e2 | 
[V:4] D,2F,4G,2- | 
[V:1] B2B2c2A2- | 
[V:2] B2g2e2f2- | 
[V:3] d4c4 | 
[V:4] G,2G,2A,2F,2- | 
[V:1] A2d4c2 | 
[V:2] fedcB2A2- | 
[V:3] d4e4 | 
[V:4] F,2F,2G,2A,2 | 
[V:1] d2cBA2d2- | 
[V:2] A2d4cB | 
[V:3] f8- | 
[V:4] D,8- | 
[V:1] d2c2B2A2 | 
[V:2] A4d4 | 
[V:3] f8 | 
[V:4] D,8 | 
[V:1] G8 ||  
[V:2] B8 ||  
[V:3] e8 ||  
[V:4] E,8 ||  
[V:1]  [K:C] [K:clef=treble][M:3/1]c6BAG2A2- | 
[V:2]  [K:C] [K:clef=treble-8][M:3/1]c4cdefg2c2- | 
[V:3]  [K:C] [K:clef=treble-8][M:3/1]e12- | 
[V:4]  [K:C] [K:clef=bass][M:3/1]A,6G,F,E,2A,,2- | 
[V:1] A2c2B2A2B2c2 | 
[V:2] c2BAG2c2B2A2- | 
[V:3] e12 | 
[V:4] A,,2A,2E,2A,2G,2A,2 | 
[V:1] d4z2d4d2 | 
[V:2] A2B4AGA2B2 | 
[V:3] d12 | 
[V:4] D,2G,4F,E,F,2G,2 | 
[V:1] e2c4BAG2c2 | 
[V:2] G2A3Bcde4 | 
[V:3] c12 | 
[V:4] C,2F,3G,A,B,C2A,2 | 
[V:1] A2B4A4^G2 | 
[V:2] f2d2f2e4e2 | 
[V:3] d4c2A2B4 | 
[V:4] F,2G,2A,4E,4 | 
[V:1] A4z2c4B2 | 
[V:2] c3de2f2e4 | 
[V:3] A8z4 | 
[V:4] A,,4z2A,4G,2 | 
[V:1] A4G2A3Bc2 | 
[V:2] z2A2e2f3ecd | 
[V:3] c8A4 | 
[V:4] F,3E,C,2F,3G,A,2 | 
[V:1] B2G2B2c2d3B | 
[V:2] e8d4 | 
[V:3] G12 | 
[V:4] E,6D,C,B,,4 | 
[V:1] c2A4c2B2G2- | 
[V:2] z2e4c3de2- | 
[V:3] A8G4 | 
[V:4] A,,8z2E,2- | 
[V:1] G2B2A2F4A2 | 
[V:2] edB2c2d3cA2 | 
[V:3] A4A8 | 
[V:4] E,F,G,2F,2D,3E,F,2 | 
[V:1] G2E2G4F2D2 | 
[V:2] e4z2e2A2B2- | 
[V:3] c8d4 | 
[V:4] E,2C,3D,E,2D,2G,2- | 
[V:1] G4A4B2G2 | 
[V:2] B2e2c2f2d2e2 | 
[V:3] B2c4d2B2c2- | 
[V:4] G,2E,2F,4G,2E,2 | 
[V:1] A4B2G2z2G2- | 
[V:2] c2f2d2e2B2e2- | 
[V:3] c2d2B2c2d2B2- | 
[V:4] F,4G,2C,2G,4 | 
[V:1] GAB4A4^G2 | 
[V:2] efg3af2e4- | 
[V:3] B2e2c2d2B4 | 
[V:4] E,4F,2D,2E,4 | 
[V:1] A12 |]  
[V:2] e12 |]  
[V:3] A12 |]  
[V:4] A,,12 |]  



